packages/assets/static/images/icons/copy.svg

<svg width="24" height="24" viewBox="0 0 24 24" xmlns="http://www.w3.org/2000/svg">
<path d="M20.25 3H8.25C8.05109 3 7.86032 3.07902 7.71967 3.21967C7.57902 3.36032 7.5 3.55109 7.5 3.75V7.5H3.75C3.55109 7.5 3.36032 7.57902 3.21967 7.71967C3.07902 7.86032 3 8.05109 3 8.25V20.25C3 20.4489 3.07902 20.6397 3.21967 20.7803C3.36032 20.921 3.55109 21 3.75 21H15.75C15.9489 21 16.1397 20.921 16.2803 20.7803C16.421 20.6397 16.5 20.4489 16.5 20.25V16.5H20.25C20.4489 16.5 20.6397 16.421 20.7803 16.2803C20.921 16.1397 21 15.9489 21 15.75V3.75C21 3.55109 20.921 3.36032 20.7803 3.21967C20.6397 3.07902 20.4489 3 20.25 3ZM15 19.5H4.5V9H15V19.5ZM19.5 15H16.5V8.25C16.5 8.05109 16.421 7.86032 16.2803 7.71967C16.1397 7.57902 15.9489 7.5 15.75 7.5H9V4.5H19.5V15Z"/>
</svg>

<svg viewBox="0 0 24 24" xmlns="http://www.w3.org/2000/svg" aria-hidden="true" fill="currentColor"><path d="M20.25 3h-12a.75.75 0 0 0-.75.75V7.5H3.75a.75.75 0 0 0-.75.75v12a.75.75 0 0 0 .75.75h12a.75.75 0 0 0 .75-.75V16.5h3.75a.75.75 0 0 0 .75-.75v-12a.75.75 0 0 0-.75-.75M15 19.5H4.5V9H15zm4.5-4.5h-3V8.25a.75.75 0 0 0-.75-.75H9v-3h10.5z"/></svg>
